assets/Man superhero/Light/Flat/man_superhero_flat_light.svg

<svg width="32" height="32" viewBox="0 0 32 32" fill="none" xmlns="http://www.w3.org/2000/svg">
<path d="M21.9982 16.635C22.0232 16.322 21.7865 16 21.388 16H11.1049C10.7712 16 10.5517 16.2364 10.508 16.5H10.5C10.5 16.5 2.5 18.4801 2 30H4L16 27L28 30H30C29.5758 19.8035 23.7546 17.1972 21.9982 16.635Z" fill="#F8312F"/>
<path d="M8 30L6.5 24.5L8 18.8549C8.7607 18.0829 9.62204 17.4143 10.5772 16.8815C10.622 16.9568 10.687 17.0247 10.7741 17.0788L16 20.5L21.7188 17.0788C21.7259 17.0744 21.7328 17.0699 21.7396 17.0652C22.5693 17.5651 23.3243 18.1692 24 18.8549L25.5 24.5L24 30H8Z" fill="#007ACF"/>
<path d="M8 30V18.8549C5.42217 21.471 4 25.2743 4 29V30H8Z" fill="#0092E7"/>
<path d="M24 18.8549V30H28V29C28 25.2743 26.5778 21.471 24 18.8549Z" fill="#0092E7"/>
<path d="M13.3317 23H18.6683C19.4595 23 19.9373 23.8752 19.5095 24.5408L16.8412 28.6915C16.4475 29.3038 15.5525 29.3038 15.1588 28.6915L12.4905 24.5408C12.0627 23.8752 12.5405 23 13.3317 23Z" fill="#0092E7"/>
<path d="M15.97 20.93C16.5223 20.93 16.97 20.4823 16.97 19.93C16.97 19.3777 16.5223 18.93 15.97 18.93C15.4177 18.93 14.97 19.3777 14.97 19.93C14.97 20.4823 15.4177 20.93 15.97 20.93Z" fill="#FCD53F"/>
<path d="M16 18.5C14.8932 18.5 14 17.5359 14 16.3413V13.6587C14 12.4641 14.8932 11.5 16 11.5C17.1068 11.5 18 12.4641 18 13.6587V16.3413C18 17.5359 17.1068 18.5 16 18.5Z" fill="#F4C6AD"/>
<path d="M12.7702 10.59C12.7702 11.5124 12.0225 12.26 11.1002 12.26C10.1779 12.26 9.43018 11.5124 9.43018 10.59C9.43018 9.66773 10.1779 8.92004 11.1002 8.92004C12.0225 8.92004 12.7702 9.66773 12.7702 10.59Z" fill="#F4C6AD"/>
<path d="M22.5601 10.59C22.5601 11.5124 21.8124 12.26 20.8901 12.26C19.9678 12.26 19.2201 11.5124 19.2201 10.59C19.2201 9.66773 19.9678 8.92004 20.8901 8.92004C21.8124 8.92004 22.5601 9.66773 22.5601 10.59Z" fill="#F4C6AD"/>
<path d="M15.5542 3C12.7679 3 10.5692 5.40916 10.7617 8.24225L10.791 8.66366L11.5 10L10.9739 11.3015L11.1569 13.9394C11.3291 15.7282 12.7071 17 14.389 17H17.611C19.2929 17 20.6709 15.7282 20.8431 13.9394L21.0251 11.3152L20.5 10L21.2071 8.69087L21.2383 8.24225C21.4308 5.40916 19.2321 3 16.4458 3H15.5542Z" fill="#FFD7C2"/>
<path d="M16.0005 13.7058C15.45 13.7058 14.9301 13.567 14.4918 13.3214C14.3389 13.2359 14.186 13.4175 14.2777 13.567C14.6447 14.1543 15.2767 14.5494 16.0005 14.5494C16.7243 14.5494 17.3563 14.1543 17.7233 13.567C17.8151 13.4175 17.652 13.2466 17.5093 13.3214C17.0607 13.567 16.551 13.7058 16.0005 13.7058Z" fill="#990838"/>
<path d="M21.22 4.3278L20.8 4.1178C20.5 3.9678 20.23 3.7778 20 3.5378L19.18 2.7278C18.57 2.1178 17.66 1.9078 16.84 2.1978C16.31 2.3878 15.73 2.3878 15.2 2.1978C14.48 1.8378 13.61 1.9778 13.05 2.5478L12.05 3.5478C11.81 3.7778 11.54 3.9778 11.25 4.1278L10.83 4.3278C10.06 4.7078 9.63003 5.5578 9.79003 6.4078L10.35 9.4578C10.41 9.7678 10.67 9.9878 10.97 9.9978C10.97 9.9978 10.91 9.1278 10.88 8.5678C10.86 8.2778 10.98 7.9978 11.19 7.8078L11.37 7.6478C11.62 7.4278 11.76 7.1078 11.76 6.7678V5.9178C11.76 5.6778 11.92 5.4678 12.16 5.4078C12.79 5.2478 14.14 4.9778 16.02 4.9778C17.9 4.9778 19.25 5.2478 19.88 5.4078C20.12 5.4678 20.28 5.6778 20.28 5.9178V6.7678C20.28 7.0978 20.42 7.4178 20.67 7.6478L20.86 7.8178C21.07 8.0078 21.19 8.2878 21.17 8.5778C21.14 9.1378 21.08 9.9978 21.08 9.9978C21.38 9.9778 21.64 9.7578 21.69 9.4578L22.25 6.4078C22.41 5.5578 21.99 4.7078 21.22 4.3278Z" fill="#212121"/>
<path d="M8 18.8549V30H4V29C4 25.2743 5.42217 21.471 8 18.8549Z" fill="#0092E7"/>
<path d="M24 30V18.8549C26.5778 21.471 28 25.2743 28 29V30H24Z" fill="#0092E7"/>
<path d="M20.6726 8.67764H21.208L21.0235 11.3376H20.5748C20.3888 11.3376 20.2127 11.3776 20.0463 11.4576L19.7821 11.5776L19.5473 11.6676L19.3711 11.7276C18.9601 11.8776 18.5002 11.8876 18.0794 11.7676L17.7761 11.6776C17.6586 11.6476 17.5412 11.5976 17.4336 11.5476L17.2281 11.4476C17.0617 11.3676 16.8856 11.3276 16.6996 11.3276H15.2612C15.0752 11.3276 14.8991 11.3676 14.7327 11.4476L14.5077 11.5576C14.4098 11.6076 14.3022 11.6476 14.1945 11.6776L13.9205 11.7576C13.4997 11.8776 13.0496 11.8676 12.6288 11.7376L12.4135 11.6676C12.3255 11.6376 12.2374 11.5976 12.1493 11.5576L11.9047 11.4376C11.7383 11.3576 11.5622 11.3176 11.3763 11.3176H10.975L10.7905 8.65764H11.2686C11.523 8.65764 11.7677 8.57764 11.983 8.43764L12.0123 8.40764C12.1982 8.28764 12.394 8.18764 12.5995 8.11764L12.6386 8.10764C13.0594 7.96764 13.5095 7.96764 13.9303 8.08764L14.0184 8.11764C14.2434 8.18764 14.4587 8.28764 14.6544 8.42764L14.6642 8.43764C14.8697 8.57764 15.1144 8.65764 15.3688 8.65764H16.5822C16.8366 8.65764 17.0813 8.58764 17.2868 8.43764C17.4923 8.28764 17.7174 8.18764 17.9522 8.11764L18.0794 8.08764C18.5002 7.96764 18.9503 7.97764 19.3711 8.12764C19.5668 8.19764 19.7528 8.28764 19.9191 8.40764L19.9681 8.43764C20.1833 8.57764 20.428 8.65764 20.6726 8.67764Z" fill="#F8312F"/>
<path d="M15.6541 10.2897L15.1583 12.0282C15.0554 12.384 15.2986 12.75 15.6447 12.75H16.3743C16.7204 12.75 16.9636 12.384 16.8607 12.0282L16.365 10.2897C16.2621 9.90342 15.7663 9.90342 15.6541 10.2897Z" fill="#E5AF93"/>
<path d="M12.1802 10.28C12.3302 9.65995 12.8902 9.19995 13.5602 9.19995C14.2602 9.19995 14.8302 9.68995 14.9602 10.35C14.9902 10.5 14.8802 10.63 14.7302 10.63H12.4502C12.2702 10.63 12.1302 10.45 12.1802 10.28Z" fill="white"/>
<path d="M19.8301 10.28C19.6801 9.65995 19.1201 9.19995 18.4501 9.19995C17.7501 9.19995 17.1801 9.68995 17.0501 10.35C17.0201 10.5 17.1301 10.63 17.2801 10.63H19.5601C19.7401 10.63 19.8701 10.46 19.8301 10.28Z" fill="white"/>
<path d="M12.8599 10.39C12.8599 9.88998 13.2699 9.47998 13.7699 9.47998C14.2799 9.47998 14.6899 9.88998 14.6799 10.39C14.6799 10.47 14.6699 10.55 14.6499 10.63H12.8899C12.8699 10.55 12.8599 10.47 12.8599 10.39Z" fill="#7D4533"/>
<path d="M19.1498 10.39C19.1498 9.88998 18.7398 9.47998 18.2398 9.47998C17.7298 9.47998 17.3298 9.88998 17.3298 10.39C17.3298 10.47 17.3398 10.55 17.3598 10.63H19.1198C19.1398 10.55 19.1498 10.47 19.1498 10.39Z" fill="#7D4533"/>
<path d="M13.77 9.87C14.06 9.87 14.29 10.1 14.29 10.39C14.29 10.48 14.27 10.56 14.23 10.63H13.31C13.27 10.56 13.25 10.48 13.25 10.39C13.25 10.1 13.48 9.87 13.77 9.87Z" fill="black"/>
<path d="M18.24 9.87C17.95 9.87 17.72 10.1 17.72 10.39C17.72 10.48 17.74 10.56 17.78 10.63H18.7C18.74 10.56 18.76 10.48 18.76 10.39C18.76 10.1 18.53 9.87 18.24 9.87Z" fill="black"/>
<path d="M13.62 10.02C13.62 10.1084 13.5484 10.18 13.46 10.18C13.3717 10.18 13.3 10.1084 13.3 10.02C13.3 9.93162 13.3717 9.85999 13.46 9.85999C13.5484 9.85999 13.62 9.93162 13.62 10.02Z" fill="white"/>
<path d="M18.12 10.02C18.12 10.1084 18.0484 10.18 17.96 10.18C17.8717 10.18 17.8 10.1084 17.8 10.02C17.8 9.93162 17.8717 9.85999 17.96 9.85999C18.0484 9.85999 18.12 9.93162 18.12 10.02Z" fill="white"/>
</svg>

<svg xmlns="http://www.w3.org/2000/svg" width="32" height="32" fill="none"><path fill="#F8312F" d="M21.998 16.635a.592.592 0 0 0-.61-.635H11.105a.592.592 0 0 0-.597.5H10.5S2.5 18.48 2 30h2l12-3 12 3h2c-.424-10.197-6.245-12.803-8.002-13.365Z"/><path fill="#007ACF" d="m8 30-1.5-5.5L8 18.855c.76-.772 1.622-1.44 2.577-1.974.045.076.11.144.197.198L16 20.5l5.719-3.421a.496.496 0 0 0 .02-.014c.83.5 1.585 1.104 2.261 1.79l1.5 5.645L24 30H8Z"/><path fill="#0092E7" d="M8 30V18.855C5.422 21.47 4 25.275 4 29v1h4ZM24 18.855V30h4v-1c0-3.726-1.422-7.529-4-10.145ZM13.332 23h5.336a1 1 0 0 1 .841 1.54l-2.668 4.152a1 1 0 0 1-1.682 0L12.49 24.54A1 1 0 0 1 13.33 23Z"/><path fill="#FCD53F" d="M15.97 20.93a1 1 0 1 0 0-2 1 1 0 0 0 0 2Z"/><path fill="#F4C6AD" d="M16 18.5c-1.107 0-2-.964-2-2.159V13.66c0-1.195.893-2.159 2-2.159s2 .964 2 2.159v2.682c0 1.195-.893 2.159-2 2.159ZM12.77 10.59a1.67 1.67 0 1 1-3.34 0 1.67 1.67 0 0 1 3.34 0ZM22.56 10.59a1.67 1.67 0 1 1-3.34 0 1.67 1.67 0 0 1 3.34 0Z"/><path fill="#FFD7C2" d="M15.554 3c-2.786 0-4.985 2.41-4.792 5.242l.029.422L11.5 10l-.526 1.302.183 2.637c.172 1.79 1.55 3.061 3.232 3.061h3.222c1.682 0 3.06-1.272 3.232-3.06l.182-2.625L20.5 10l.707-1.31.031-.448C21.431 5.41 19.232 3 16.446 3h-.892Z"/><path fill="#990838" d="M16 13.706a3.09 3.09 0 0 1-1.508-.385c-.153-.085-.306.097-.214.246.367.587.999.982 1.722.982.724 0 1.356-.395 1.723-.982.092-.15-.071-.32-.214-.246a3.12 3.12 0 0 1-1.509.385Z"/><path fill="#212121" d="m21.22 4.328-.42-.21c-.3-.15-.57-.34-.8-.58l-.82-.81a2.25 2.25 0 0 0-2.34-.53c-.53.19-1.11.19-1.64 0-.72-.36-1.59-.22-2.15.35l-1 1c-.24.23-.51.43-.8.58l-.42.2c-.77.38-1.2 1.23-1.04 2.08l.56 3.05c.06.31.32.53.62.54 0 0-.06-.87-.09-1.43-.02-.29.1-.57.31-.76l.18-.16c.25-.22.39-.54.39-.88v-.85c0-.24.16-.45.4-.51.63-.16 1.98-.43 3.86-.43s3.23.27 3.86.43c.24.06.4.27.4.51v.85c0 .33.14.65.39.88l.19.17c.21.19.33.47.31.76-.03.56-.09 1.42-.09 1.42.3-.02.56-.24.61-.54l.56-3.05c.16-.85-.26-1.7-1.03-2.08Z"/><path fill="#0092E7" d="M8 18.855V30H4v-1c0-3.726 1.422-7.529 4-10.145ZM24 30V18.855c2.578 2.616 4 6.42 4 10.145v1h-4Z"/><path fill="#F8312F" d="M20.673 8.678h.535l-.184 2.66h-.45c-.185 0-.361.04-.528.12l-.264.12-.235.09-.176.06c-.41.15-.87.16-1.292.04l-.303-.09a2.018 2.018 0 0 1-.342-.13l-.206-.1a1.204 1.204 0 0 0-.528-.12H15.26c-.186 0-.362.04-.528.12l-.225.11c-.098.05-.206.09-.313.12l-.274.08c-.421.12-.871.11-1.292-.02l-.215-.07c-.088-.03-.177-.07-.265-.11l-.244-.12a1.204 1.204 0 0 0-.529-.12h-.401l-.184-2.66h.478c.254 0 .499-.08.714-.22l.03-.03c.185-.12.381-.22.587-.29l.039-.01c.42-.14.87-.14 1.291-.02l.088.03c.225.07.44.17.636.31l.01.01c.206.14.45.22.705.22h1.213c.255 0 .5-.07.705-.22.205-.15.43-.25.665-.32l.127-.03c.421-.12.871-.11 1.292.04.196.07.382.16.548.28l.05.03c.214.14.459.22.704.24Z"/><path fill="#E5AF93" d="m15.654 10.29-.496 1.738c-.103.356.14.722.487.722h.73c.345 0 .589-.366.486-.722l-.496-1.738c-.103-.387-.599-.387-.71 0Z"/><path fill="#fff" d="M12.18 10.28c.15-.62.71-1.08 1.38-1.08.7 0 1.27.49 1.4 1.15a.23.23 0 0 1-.23.28h-2.28c-.18 0-.32-.18-.27-.35ZM19.83 10.28c-.15-.62-.71-1.08-1.38-1.08-.7 0-1.27.49-1.4 1.15-.03.15.08.28.23.28h2.28c.18 0 .31-.17.27-.35Z"/><path fill="#7D4533" d="M12.86 10.39c0-.5.41-.91.91-.91a.9.9 0 0 1 .91.91c0 .08-.01.16-.03.24h-1.76a.986.986 0 0 1-.03-.24ZM19.15 10.39c0-.5-.41-.91-.91-.91-.51 0-.91.41-.91.91 0 .08.01.16.03.24h1.76c.02-.08.03-.16.03-.24Z"/><path fill="#000" d="M13.77 9.87a.516.516 0 0 1 .46.76h-.92a.516.516 0 0 1 .46-.76ZM18.24 9.87a.516.516 0 0 0-.46.76h.92a.516.516 0 0 0-.46-.76Z"/><path fill="#fff" d="M13.62 10.02a.16.16 0 1 1-.32 0 .16.16 0 0 1 .32 0ZM18.12 10.02a.16.16 0 1 1-.32 0 .16.16 0 0 1 .32 0Z"/></svg>
